X:542
T:Le Vin Rose
G:Romanian colinda? (from a French diatonic accordion site)
Z:Jack Campin, http://www.campin.me.uk/
F:Jack Campin's Nine-Note Tunebook
% last edit 03-02-2013
M:7/8
L:1/8
V:1
V:2 transpose -12
Q:1/4=144
K:EMin
[V:1] E2 B2 ({Bc}B2)A|B2 A2 ({GA}G2)F|Ac BA ({GA}G2)F|(GA) (FG) E3 :|
[V:2] E2 E2      E2 z|D2 D2      E2 z|E2 E2      E2 z| D2   D2  E2z:|
%
[V:1] A2 A2 ({GA}G2)F|F2 F2      D3  |Ac BA ({GA}G2)F|(GA) (FG) E3 :|
[V:2] D2 D2      A2 z|D2 D2      D2 z|E2 E2      E2 z| D2   D2  E2z:|

